X:4437
T:Mrs. Crehan's
O:england
R:reel
D:Matt Molloy & Sean Keane: Contentment is Wealth
D:Mary Bergin: Feadoga Stain
M:C|
K:G
G2dG eGdG|G2dG AdBA|G2dG eGdG|1 EGAB cedB:|2 EGAB cege||
d2 (3Bcd GdBd|GdBd eA~A2|d2 (3Bcd GdBd|ecAc BG~G2|
d2Bd G2BG|~G2BG AE~E2|GABc dedc|BdAc BGGF||


